X:1
T:Title
%%score { ( 1 3 ) | ( 2 4 ) }
L:1/8
M:4/4
K:Ab
V:1 treble nm="Grand Piano"
V:3 treble 
V:2 bass 
V:4 bass 
V:1
 z4 z2 z[Q:1/4=82] [CE] | z4 z .A3 | ddcc B3 E | eedd [Ec][Ec]BB | AAGB [A,CA]3 E | %5
 dcBE [Ec]B[CA][_GA] | [FA][FA][FB][F_c] [=E=c]3 [DG]/[DF]/ | %7
[M:17/16] [CE]Ac[_Ge][Fe][Fd][FB]3/2[Fd] |[M:7/8] cEc B [A,CA]3 |[M:1/8] E | %10
[M:4/4] Ac e>f [Gd]3 E | GB d>e c3 [CE] |[M:17/16] [DF][EG][EA]Bcfe3/2[Ec] | %13
[M:19/16] [Ee]-<[Ee][Fd][Ec][DB][CA]/-[CA]/-[CA]/-[CA]/-[CA]/-[CA]-<[CA] |] %14
V:2
 z4 z2 z [A,,A,] | [A,,A,][A,,A,][E,G,][E,G,] [A,,A,]F,E,E, | %2
 [E,B,E][E,B,E][A,E][A,E] [E,G,E]3 [E,G,] | %3
 [A,CE][A,CE][E,B,E][E,B,E] [A,,A,][A,,A,][D,F,D][D,F,D] | [E,A,C][E,A,C][E,B,D][E,G,D] A,,3 E, | %5
 [E,B,E][E,A,E][E,G,E][E,G,] A,[E,D][A,,E,][C,A,] | %6
 [D,A,][D,A,][D,G,][D,G,] [C,G,]3 [B,,B,]/[E,G,]/ | %7
[M:17/16] [A,,A,][A,C][A,E][C,A,][D,A,][D,A,][D,D]3/2[D,A,] | %8
[M:7/8] [E,A,E][E,A,C][E,A,E] [E,G,D] A,,3 |[M:1/8] E, | %10
[M:4/4][K:treble] [A,C][A,E] [A,CA]>[A,CA][K:bass] [E,B,]3 E, | %11
 [E,B,E][E,G,E] [E,B,E]>[E,CE] [A,E]3 [A,,A,] | %12
[M:17/16] [D,A,][B,,B,][C,A,][E,G,E][K:treble][A,E][A,DA][A,CA]3/2[K:bass][A,,A,] | %13
[M:19/16] [C,A,]-<[C,A,][D,A,][E,A,][E,G,][A,,A,]/-[A,,A,]/-[A,,A,]/-[A,,A,]/-[A,,A,]/-[A,,A,]-<[A,,A,] |] %14
V:3
 x8 | [Ec][Ec][DB][DB] [CA]DCE | x8 | x8 | x8 | x8 | x8 |[M:17/16] x17/2 |[M:7/8] x7 |[M:1/8] x | %10
[M:4/4] x8 | x8 |[M:17/16] x17/2 |[M:19/16] x19/2 |] %14
V:4
 x8 | z4 z .A,,3 | x8 | x8 | x8 | z4 A,,2 z2 | x8 |[M:17/16] x17/2 |[M:7/8] x7 |[M:1/8] x | %10
[M:4/4][K:treble] x4[K:bass] x4 | x8 |[M:17/16] x4[K:treble] x7/2[K:bass] x |[M:19/16] x19/2 |] %14

